X:484
T:Reel 484
M:4/4
K:Dmaj
L:1/8
F>E (3FED G>EC>E| (3FED E>D  (3FGA A2|F>G (3EDC D>F (3GFE |Fdcd  (3Bcd AG|F>C (3CDE E>E (3EEE |F>G (3FEF d>F (3EDE |d>c (3cBA B>E (3EEE |E>B, (3EDE F>E (3EEE | (3FGF E>D C>E (3EEE |E>C (3ECE |:B>E (3EDE F2FD |CEA,E CEAE2||F>E (3EEE G2|E>E (3EEE E2EG| (3FGF E2 D2:|
